X: 24049
T: Lone Shanakyle
R: waltz
M: 3/4
K: Cmajor
(EF)|:"C" G2c2d2|"Am" c4 cd|"F" e2f2e2|"G" d6|z2z2 (ed)|"F" c2G2F2|
"G" FE3F2|"F" G2c2(Bc)|"G/B" G6|z2 z2 G2|"C" G2c2(cd)|"Am" c4 cd|"F" e2f2e2|
"G" d6|z2 e2(de)|"F" c2G2F2|"G" (FD2)DG2|"C" C2 C4-|C6|"C" E2F2G2|"F" B2G2F2-|F6|
"C" F2c2c2|"F" c2G2F2-|F2G3F|"C" E2C4|"F" c2G2F2|"G" G2c2(dc-|"Am" c2B2)c2-|c6|
"C" E2F2G2|"F" B2G2F2-|F6|"C" G2c2d2|"Am" e2f2(ef)|"G" d6|e4d2|
"F" c2G2F2|"G"F2D2G2-|G6|1 "C" C2C4-|C4 (EF):|2 "C" C2C4-|C12||

